img/svgicons/unlocked.svg

<svg width="19" height="19" viewBox="0 0 19 19" fill="none" xmlns="http://www.w3.org/2000/svg">
<path d="M15.1292 7.0768V5.10185C15.1292 2.2888 12.6036 0 9.49953 0C6.39549 0 3.8699 2.2888 3.8699 5.10185C3.8699 5.29643 4.02718 5.4537 4.22175 5.4537C4.41633 5.4537 4.5736 5.29643 4.5736 5.10185C4.5736 2.67654 6.78323 0.703704 9.49953 0.703704C12.2158 0.703704 14.4255 2.67654 14.4255 5.10185V7.03704H4.30233C2.89984 7.03704 1.75879 8.17809 1.75879 9.58057V16.4565C1.75879 17.8589 2.89984 19 4.30233 19H14.6967C16.0992 19 17.2403 17.8589 17.2403 16.4565V9.58057C17.2403 8.32587 16.3258 7.28298 15.1292 7.0768ZM10.9069 13.3704C10.9069 14.1466 10.2757 14.7778 9.49953 14.7778C8.72334 14.7778 8.09212 14.1466 8.09212 13.3704V11.2593C8.09212 10.4831 8.72334 9.85185 9.49953 9.85185C10.2757 9.85185 10.9069 10.4831 10.9069 11.2593V13.3704Z" fill="#337D5A"/>
</svg>

<svg width="19" height="19" fill="none" xmlns="http://www.w3.org/2000/svg"><path d="M15.13 7.077V5.102C15.13 2.289 12.603 0 9.5 0 6.395 0 3.87 2.289 3.87 5.102a.352.352 0 1 0 .704 0C4.574 2.677 6.784.704 9.5.704s4.925 1.973 4.925 4.398v1.935H4.303A2.546 2.546 0 0 0 1.76 9.581v6.875A2.546 2.546 0 0 0 4.302 19h10.395a2.547 2.547 0 0 0 2.543-2.544V9.581a2.546 2.546 0 0 0-2.11-2.504Zm-4.223 6.293c0 .777-.631 1.408-1.407 1.408a1.409 1.409 0 0 1-1.408-1.408v-2.11a1.409 1.409 0 0 1 2.815 0v2.11Z" fill="#337D5A"/></svg>
